X:1
T:Salt Spring
C:John Reischman
L:1/8
M:4/4
I:linebreak $
K:A
V:1 treble nm="Voice" snm="Voice"
V:1
 e2 e>e f e2 f- | fe c/B/A c2 c/B/A/c/ | B2 B>B c B2 c | cB A2 G3 F3 |$ B2 B>B c B2 c- | %5
 cB A2 [Gf]2 F3 | F2 A>A BA F/E/D |1 E6 A/B/c/d/ :|2 E4- EA/B/ c/B/A/G/ |:$"D" F2 G2 A2 c2 | %10
 F2 G2 A4 | F2 G2 A2 c2 |1 c B3- BA/B/ c/B/A/G/ :|2 c B3- B2 A/B/c/d/ || %14
